X:46
T:One Little Number
M:2/4
Q:200
C:Alan &amp; Janet Muggeridge &#169;1986
L:1/4
K:D %Transposed from C
A|           D D     D3/ E/ |F  A3/ z3/|           D D     D3/ E/ |F  A3/ z3/ |
W:I          step out  in       my      high heels,               feel-ing how     the       night feels,
   D    D  D3/2 E/ |F3 z|A A A F|B2 z2|   
W:Hop -ing  I'm            in            tune,                        wond'ring what  I'll          play -------
BBAA|F2 F3/ A/ |GFED|B,2 z A,/C/ |
W: Sud -den -ly     I           feel   for             a            mo -ment that   I'm         real,         Do - ing  
D  D B3/  B/|A F z D|EEAA |D z F D |
W: just one  lit -------  tle         num -ber          to         blow  the   boys a ----    way,        Do - ing 
D  D  B3/  B/| A F z D|E D (E2|E2^G2|^G2 B2|B7/2) A/|D z3 ||
W:just one lit -- tle   num-ber     to   blow the boys -----------------------                     a   -   way.
